X:1
T:Title
%%score { ( 1 3 ) | ( 2 4 ) }
L:1/8
Q:1/4=100
M:4/4
K:C
V:1 treble nm="Grand Piano"
V:3 treble 
V:2 bass 
V:4 bass 
V:1
 [Ec]3 G A [EG]2 [Ec] | [Ec]3 [CG] [FA][EG] z [CGc]/[CGc]/ | %2
 [Fc][Ec] z [Gc]/[Gc]/ [Fc][Ec][Gc][Gc] | [FB][Ec]cB [Ec]2 z2 | d3 G e d2 d | d3 G ed z d/d/ | %6
 ed z d/d/ eddd | edcc B2 z2 |[M:1/8] [Gc]/[Gc]/ |[M:4/4] [Fc][Ec] z [Gc]/[Gc]/ [Fc][Ec] z [Gc] | %10
[M:9/8] [FB]c-[Dc] [DB] [Ec]2- [Ec] z z |[M:4/4] [Ec]3 G A [EG]2 [Ec] | %12
 [Ec]3 [CG] [FA][EG] z [CGc]/[CGc]/ | [Fc][Ec] z [Gc]/[Gc]/ [Fc][Ec][Gc][Gc] | %14
 [FB][Ec]cB [Ec]2 z2 | d3 G e d2 d | d3 G ed z d/d/ | ed z d/d/ eddd | edcc B2 z2 | G,4 A,2 B,2 | %20
 CC z2 z4 | z4 z2 z[K:treble] [CGc] | [FAc][EGc] z [CGc] [FAc][EGc] z [CGc]/[CGc]/ | %23
 [FAc][EGc] z [CGc]/[CGc]/ [FAc][EGc] z2 | z4 z2 [Ec]2 | [Fc]6 [Fc]2 |[M:2/4] [Ec]4 |] %27
V:2
 [C,G,]3 [E,C] [F,CF] [C,C]2 [C,G,] | [C,G,]3 E, F,C, z E,/E,/ | %2
 [F,A,][C,G,] z [E,C]/[E,C]/ [F,A,][C,G,][E,C][E,C] | [D,G,][C,G,][G,D][G,D] [C,G,]2 z2 | %4
 [G,B,G]3 [B,D] [CG] [G,B,G]2 [G,B,G] | z4 [CG]2 z2 | %6
 [CG][G,B,G] z [B,DG]/[B,DG]/ [CG][G,B,G][B,DG][B,DG] | [CG][B,DG][A,CG][A,C^F] [G,DG]2 z2 | %8
[M:1/8][K:bass] [E,C]/[E,C]/ |[M:4/4] [F,A,][C,G,] z [E,C]/[E,C]/ [F,A,][C,G,] z [E,C] | %10
[M:9/8] .G,3 z3 z3 |[M:4/4] [C,G,]3 [E,C] [F,CF] [C,C]2 [C,G,] | [C,G,]3 E, F,C, z E,/E,/ | %13
 [F,A,][C,G,] z [E,C]/[E,C]/ [F,A,][C,G,][E,C][E,C] | [D,G,][C,G,][G,D][G,D] [C,G,]2 z2 | %15
 [G,B,G]3 [B,D] [CG] [G,B,G]2 [G,B,G] | z4 [CG]2 z2 | %17
 [CG][G,B,G] z [B,DG]/[B,DG]/ [CG][G,B,G][B,DG][B,DG] | [CG][B,DG][A,CG][A,C^F] [G,DG]2 z2 | z8 | %20
 z[K:bass] C, C2- CC B,2 | A,4 G,2 z E, | F,C, z E, F,C, z E,/E,/ | F,C, z E,/E,/ F,C, z2 | %24
 z4 z2 [C,G,]2 | [F,A,]6 [F,A,]2 |[M:2/4] [C,G,]4 |] %27
V:3
 x8 | z4 C2 z2 | x8 | x8 | x8 | x8 | x8 | x8 |[M:1/8] x |[M:4/4] x8 |[M:9/8] z .E2 z3 z3 | %11
[M:4/4] x8 | z4 C2 z2 | x8 | x8 | x8 | x8 | x8 | x8 | x8 | x8 | x7[K:treble] x | x8 | x8 | x8 | %25
 x8 |[M:2/4] x4 |] %27
V:4
 x8 | x8 | x8 | x8 | x8 | [G,B,G]3 [B,D] z [G,B,] z [B,DG]/[B,DG]/ | x8 | x8 |[M:1/8][K:bass] x | %9
[M:4/4] x8 |[M:9/8] D,C,G, [G,,G,] [C,G,]2- [C,G,] z z |[M:4/4] x8 | x8 | x8 | x8 | x8 | %16
 [G,B,G]3 [B,D] z [G,B,] z [B,DG]/[B,DG]/ | x8 | x8 | x8 | x[K:bass] x7 | x8 | x8 | x8 | x8 | x8 | %26
[M:2/4] x4 |] %27

